X:1
T: Opera Reel
M: C |
R: reel
K: D
"^A"[|] \
A, | "D"D2D2 FEFA | DCDF "A"EDB,A, | "D"D2D2 FEFA | "G"BdAF "A"EDCE |
   "D"D2D2 FEFA | DCDF "A"EDB,A, | "D"D2D2 FEFA | "G"(3Bcd AF "A" E2(3ABc ||
"^B"|| \
"D"d2d2 dAFA | d2d2 "A"egfe | "D"d2d2 dAFA | "G"BdAF "A"E2 (3ABc |
"D"d2d2 dAFA | d2d2 "A"egfe | "D"d2d2 dAFA | "G"BdAF "A"E2 fg ||
"^C"|| \
"D"a3 f "A"g3e | "D"fafe "G"dcBA | "D"afaf "G"gfge | "A"faec "D" d2 fg |
"D"a3 f "A"g3e | "D"fafe "G"dcBA | "D"afaf "G"gfge | "A"faec "D" d2 (3ABc ||
"^D"|| \
"D"defd "A"efge | "D"faec "G"dcBA | "D"defd "G"efge | "A7"faec "D"d2 (3ABc |
"D"defd "A"efge | "D"faec "G"dcBA | "D"defd "G"efge | "A"faec "D"d4 |]
